src/main/resources/META-INF/pluginIcon.svg

<svg width="512" height="512" fill="none" xmlns="http://www.w3.org/2000/svg">
    <g clip-path="url(#clip0)">
        <rect width="512" height="512" rx="40" fill="url(#paint0_linear)"/>
        <path
            d="M512 386.253V472c0 22.091-17.909 40-40 40H40c-22.091 0-40-17.909-40-40V263.957c165.665 64.731 370.513 104.626 512 122.296z"
            fill="url(#paint1_linear)"/>
        <path fill-rule="evenodd" clip-rule="evenodd"
              d="M255.988 104c71.44 0 129.344 27.115 129.344 60.513 0 33.423-57.929 60.513-129.344 60.513-71.416 0-129.345-27.115-129.345-60.513 0-33.398 57.929-60.513 129.345-60.513zM126.643 306.444v46.461c23.014 81.715 250.374 65.931 258.714-4.181v-46.411c-11.359 76.964-240.526 82.506-258.714 4.131zM126 185.492v45.373c23.013 79.809 251.636 69.023 260 .569v-45.348c-11.383 75.184-241.812 75.95-260-.594zm0 58.633v46.461c23.013 81.715 251.636 70.681 260 .569v-46.412c-11.383 76.965-241.812 77.757-260-.618z"
              fill="url(#paint2_linear)"/>
        <g clip-path="url(#clip1)">
            <path d="M351.691 326.154l-3.724-11.285L320.43 309 307 324.236l41.983 21.443 2.708-19.525z"
                  fill="url(#paint3_linear)"/>
            <path d="M338.6 355.723l-.79-23.474-30.81-8.013 7.561 45.255 24.039-.225v-13.543z"
                  fill="url(#paint4_linear)"/>
            <path
                d="M331.941 355.271l1.468-18.621 22.345-22.91 19.976 3.611L386 342.97l-10.721 10.609-17.493-2.822-10.835 11.399-15.01-6.885z"
                fill="url(#paint5_linear)"/>
            <path d="M355.754 313.74l-32.051 28.44 6.207 36.566L356.544 388 386 370.394l-30.246-56.654z"
                  fill="url(#paint6_linear)"/>
            <path d="M370.877 324.123h-48.754v48.754h48.754v-48.754z" fill="#000"/>
            <path
                d="M345.033 363.736H326.75v3.047h18.283v-3.047zM326.524 330.443h8.239c4.853 0 7.787 2.821 7.787 6.997v.113c0 4.74-3.612 7.11-8.239 7.11h-3.385v6.094h-4.402v-20.314zm8.013 10.157c2.257 0 3.499-1.354 3.499-3.047v-.113c0-2.031-1.355-3.047-3.612-3.047h-3.386v6.207h3.499zM343.678 347.823l2.596-3.16c1.806 1.467 3.724 2.483 6.094 2.483 1.806 0 2.935-.677 2.935-1.919v-.113c0-1.128-.677-1.693-4.063-2.595-4.063-1.016-6.772-2.145-6.772-6.208v-.112c0-3.725 2.935-6.095 7.11-6.095 2.935 0 5.53.903 7.562 2.596l-2.37 3.386c-1.806-1.242-3.612-2.032-5.304-2.032-1.693 0-2.596.79-2.596 1.806v.113c0 1.354.903 1.806 4.401 2.708 4.063 1.129 6.433 2.596 6.433 6.095v.113c0 4.062-3.047 6.32-7.448 6.32a13.91 13.91 0 01-8.578-3.386z"
                fill="#fff"/>
        </g>
        <path fill-rule="evenodd" clip-rule="evenodd"
              d="M294.409 141.235c.029.108.044.219.044.33v17.302a1.253 1.253 0 01-.635 1.094l-14.55 8.361v16.572c0 .451-.24.867-.632 1.095l-30.372 17.45c-.07.039-.146.064-.222.091-.028.01-.055.027-.085.035a1.27 1.27 0 01-.648 0c-.034-.01-.066-.028-.099-.041-.07-.025-.142-.047-.209-.085l-30.366-17.45a1.267 1.267 0 01-.635-1.095v-51.906c0-.113.016-.224.044-.331.01-.036.032-.069.044-.106.024-.066.046-.134.081-.195.024-.041.059-.074.087-.112.036-.051.069-.103.112-.147.036-.036.084-.063.125-.094.046-.038.087-.079.139-.109h.002l15.183-8.725a1.268 1.268 0 011.264 0l15.184 8.725h.003c.051.031.094.071.139.107.041.032.087.06.124.095.044.045.075.097.113.148.027.038.064.071.086.112.036.063.057.129.082.195.012.037.035.07.044.108.029.107.044.218.044.329v32.42l12.653-7.271v-16.574c0-.11.016-.222.044-.328.011-.037.032-.07.044-.107.026-.066.048-.134.083-.195.023-.041.058-.074.085-.112.038-.051.069-.103.114-.147.036-.036.082-.063.123-.095.047-.037.088-.078.139-.108h.002l15.185-8.725a1.262 1.262 0 011.264 0l15.184 8.725c.053.031.095.071.142.107.039.031.085.06.122.095.044.045.075.097.113.148.029.038.064.071.086.112.036.061.057.129.082.195.014.037.035.07.044.107zm-2.487 16.902v-14.388l-5.313 3.053-7.341 4.218v14.388l12.656-7.271h-.002zm-15.184 26.027v-14.397l-7.22 4.116-20.619 11.744v14.533l27.839-15.996zm-58.207-48.992v48.992l27.837 15.995v-14.53l-14.543-8.214-.004-.003-.007-.003c-.049-.029-.09-.07-.136-.105-.039-.031-.085-.056-.12-.091l-.003-.005c-.041-.039-.069-.088-.104-.132-.032-.043-.07-.079-.095-.123l-.002-.005c-.028-.047-.045-.104-.066-.158-.02-.047-.047-.091-.06-.142v-.001c-.016-.06-.019-.123-.025-.185-.007-.047-.019-.094-.019-.142v-33.877l-7.339-4.219-5.314-3.05v-.002zm13.92-9.452l-12.651 7.268 12.648 7.268 12.649-7.269-12.649-7.267h.003zm6.579 45.359l7.339-4.217v-31.69l-5.313 3.053-7.341 4.218v31.69l5.315-3.054zm38.974-36.782l-12.65 7.268 12.65 7.268 12.648-7.27-12.648-7.266zm-1.266 16.723l-7.34-4.218-5.314-3.053v14.388l7.339 4.217 5.315 3.054V151.02zm-29.106 32.423l18.554-10.571 9.274-5.283-12.64-7.263-14.553 8.362-13.264 7.621 12.629 7.134z"
              fill="#FF2D20"/>
    </g>
    <defs>
        <linearGradient id="paint0_linear" x1="0" y1="0" x2="512" y2="512" gradientUnits="userSpaceOnUse">
            <stop stop-color="#FF2C22"/>
            <stop offset="1" stop-color="#2800E0"/>
        </linearGradient>
        <linearGradient id="paint1_linear" x1="-224.5" y1="322" x2="610" y2="524" gradientUnits="userSpaceOnUse">
            <stop stop-color="#5000FF"/>
            <stop offset="1" stop-color="#E60804" stop-opacity=".937"/>
        </linearGradient>
        <linearGradient id="paint2_linear" x1="256" y1="104" x2="256" y2="407.994" gradientUnits="userSpaceOnUse">
            <stop stop-color="#80004D"/>
            <stop offset="1" stop-color="#140606"/>
        </linearGradient>
        <linearGradient id="paint3_linear" x1="307.63" y1="361.869" x2="340.798" y2="318.057"
                        gradientUnits="userSpaceOnUse">
            <stop offset=".016" stop-color="#765AF8"/>
            <stop offset=".382" stop-color="#B345F1"/>
            <stop offset=".758" stop-color="#FA3293"/>
            <stop offset=".941" stop-color="#FF318C"/>
        </linearGradient>
        <linearGradient id="paint4_linear" x1="310.081" y1="363.599" x2="343.195" y2="319.858"
                        gradientUnits="userSpaceOnUse">
            <stop offset=".016" stop-color="#765AF8"/>
            <stop offset=".382" stop-color="#B345F1"/>
            <stop offset=".758" stop-color="#FA3293"/>
            <stop offset=".941" stop-color="#FF318C"/>
        </linearGradient>
        <linearGradient id="paint5_linear" x1="364.396" y1="361.371" x2="345.681" y2="316.954"
                        gradientUnits="userSpaceOnUse">
            <stop offset=".183" stop-color="#765AF8"/>
            <stop offset=".238" stop-color="#8655F6"/>
            <stop offset=".345" stop-color="#9F4CF3"/>
            <stop offset=".443" stop-color="#AE47F2"/>
            <stop offset=".522" stop-color="#B345F1"/>
        </linearGradient>
        <linearGradient id="paint6_linear" x1="378.4" y1="373.711" x2="334.873" y2="340.054"
                        gradientUnits="userSpaceOnUse">
            <stop offset=".016" stop-color="#765AF8"/>
            <stop offset=".382" stop-color="#B345F1"/>
        </linearGradient>
        <clipPath id="clip0">
            <path fill="#fff" d="M0 0h512v512H0z"/>
        </clipPath>
        <clipPath id="clip1">
            <path fill="#fff" transform="translate(307 309)" d="M0 0h79v79H0z"/>
        </clipPath>
    </defs>
</svg>

<svg width="512" height="512" viewBox="0 0 512 512" fill="none" xmlns="http://www.w3.org/2000/svg">
    <g clip-path="url(#clip0)">
        <rect width="512" height="512" rx="40" fill="#BDD4E7"/>
        <path fill-rule="evenodd" clip-rule="evenodd" d="M255.988 104C327.428 104 385.332 131.115 385.332 164.513C385.332 197.936 327.403 225.026 255.988 225.026C184.572 225.026 126.643 197.911 126.643 164.513C126.643 131.115 184.572 104 255.988 104ZM129.461 314.7C128.967 313.619 126.643 313.988 126.643 315.177V352.767C126.643 352.858 126.656 352.951 126.681 353.039C149.906 434.602 377.022 418.797 385.357 348.724V315.938C385.357 314.699 381.716 314.118 381.144 315.217C348.929 377.137 159.335 380.045 129.461 314.7ZM128.807 193.539C128.306 192.464 126 192.84 126 194.026V230.723C126 230.817 126.013 230.911 126.04 231.001C149.275 310.662 377.641 299.849 386 231.434V199.371C386 198.134 382.367 197.538 381.78 198.627C349.441 258.675 158.711 257.694 128.807 193.539ZM128.814 252.381C128.321 251.299 126 251.669 126 252.858V290.448C126 290.539 126.013 290.632 126.038 290.72C149.264 372.289 377.641 361.229 386 291.155V258.34C386 257.101 382.343 256.514 381.766 257.61C349.386 319.048 158.739 318.043 128.814 252.381Z" fill="#0E0313"/>
        <g clip-path="url(#clip1)">
            <path d="M351.691 326.154L347.967 314.869L320.43 309L307 324.236L348.983 345.679L351.691 326.154Z" fill="url(#paint0_linear)"/>
            <path d="M338.6 355.723L337.81 332.249L307 324.236L314.561 369.491L338.6 369.266V355.723Z" fill="url(#paint1_linear)"/>
            <path d="M331.941 355.271L333.409 336.65L355.754 313.74L375.73 317.351L386 342.97L375.279 353.579L357.786 350.757L346.951 362.156L331.941 355.271Z" fill="url(#paint2_linear)"/>
            <path d="M355.754 313.74L323.703 342.18L329.91 378.746L356.544 388L386 370.394L355.754 313.74Z" fill="url(#paint3_linear)"/>
            <path d="M370.877 324.123H322.123V372.877H370.877V324.123Z" fill="black"/>
            <path d="M345.033 363.736H326.75V366.783H345.033V363.736Z" fill="white"/>
            <path d="M326.524 330.443H334.763C339.616 330.443 342.55 333.264 342.55 337.44V337.553C342.55 342.293 338.938 344.663 334.311 344.663H330.926V350.757H326.524V330.443ZM334.537 340.6C336.794 340.6 338.036 339.246 338.036 337.553V337.44C338.036 335.409 336.681 334.393 334.424 334.393H331.038V340.6H334.537Z" fill="white"/>
            <path d="M343.678 347.823L346.274 344.663C348.08 346.13 349.998 347.146 352.368 347.146C354.174 347.146 355.303 346.469 355.303 345.227V345.114C355.303 343.986 354.626 343.421 351.24 342.519C347.177 341.503 344.468 340.374 344.468 336.311V336.199C344.468 332.474 347.403 330.104 351.578 330.104C354.513 330.104 357.108 331.007 359.14 332.7L356.77 336.086C354.964 334.844 353.158 334.054 351.466 334.054C349.773 334.054 348.87 334.844 348.87 335.86V335.973C348.87 337.327 349.773 337.779 353.271 338.681C357.334 339.81 359.704 341.277 359.704 344.776V344.889C359.704 348.951 356.657 351.209 352.256 351.209C349.208 351.096 346.161 349.967 343.678 347.823Z" fill="white"/>
        </g>
        <path fill-rule="evenodd" clip-rule="evenodd" d="M294.409 141.235C294.438 141.343 294.453 141.454 294.453 141.565V158.867C294.453 159.089 294.395 159.307 294.283 159.499C294.172 159.692 294.011 159.851 293.818 159.961L279.268 168.322V184.894C279.268 185.345 279.028 185.761 278.636 185.989L248.264 203.439C248.194 203.478 248.118 203.503 248.042 203.53C248.014 203.54 247.987 203.557 247.957 203.565C247.745 203.621 247.522 203.621 247.309 203.565C247.275 203.555 247.243 203.537 247.21 203.524C247.14 203.499 247.068 203.477 247.001 203.439L216.635 185.989C216.442 185.878 216.282 185.719 216.17 185.526C216.059 185.334 216 185.116 216 184.894V132.988C216 132.875 216.016 132.764 216.044 132.657C216.054 132.621 216.076 132.588 216.088 132.551C216.112 132.485 216.134 132.417 216.169 132.356C216.193 132.315 216.228 132.282 216.256 132.244C216.292 132.193 216.325 132.141 216.368 132.097C216.404 132.061 216.452 132.034 216.493 132.003C216.539 131.965 216.58 131.924 216.632 131.894H216.634L231.817 123.169C232.01 123.058 232.228 123 232.449 123C232.671 123 232.889 123.058 233.081 123.169L248.265 131.894H248.268C248.319 131.925 248.362 131.965 248.407 132.001C248.448 132.033 248.494 132.061 248.531 132.096C248.575 132.141 248.606 132.193 248.644 132.244C248.671 132.282 248.708 132.315 248.73 132.356C248.766 132.419 248.787 132.485 248.812 132.551C248.824 132.588 248.847 132.621 248.856 132.659C248.885 132.766 248.9 132.877 248.9 132.988V165.408L261.553 158.137V141.563C261.553 141.453 261.569 141.341 261.597 141.235C261.608 141.198 261.629 141.165 261.641 141.128C261.667 141.062 261.689 140.994 261.724 140.933C261.747 140.892 261.782 140.859 261.809 140.821C261.847 140.77 261.878 140.718 261.923 140.674C261.959 140.638 262.005 140.611 262.046 140.579C262.093 140.542 262.134 140.501 262.185 140.471H262.187L277.372 131.746C277.564 131.635 277.782 131.577 278.004 131.577C278.226 131.577 278.444 131.635 278.636 131.746L293.82 140.471C293.873 140.502 293.915 140.542 293.962 140.578C294.001 140.609 294.047 140.638 294.084 140.673C294.128 140.718 294.159 140.77 294.197 140.821C294.226 140.859 294.261 140.892 294.283 140.933C294.319 140.994 294.34 141.062 294.365 141.128C294.379 141.165 294.4 141.198 294.409 141.235ZM291.922 158.137V143.749L286.609 146.802L279.268 151.02V165.408L291.924 158.137H291.922ZM276.738 184.164V169.767L269.518 173.882L248.899 185.627V200.16L276.738 184.164ZM218.531 135.172V184.164L246.368 200.159V185.629L231.825 177.415L231.821 177.412L231.814 177.409C231.765 177.38 231.724 177.339 231.678 177.304C231.639 177.273 231.593 177.248 231.558 177.213L231.555 177.208C231.514 177.169 231.486 177.12 231.451 177.076C231.419 177.033 231.381 176.997 231.356 176.953L231.354 176.948C231.326 176.901 231.309 176.844 231.288 176.79C231.268 176.743 231.241 176.699 231.228 176.648V176.647C231.212 176.587 231.209 176.524 231.203 176.462C231.196 176.415 231.184 176.368 231.184 176.32V176.317V142.443L223.845 138.224L218.531 135.174V135.172ZM232.451 125.72L219.8 132.988L232.448 140.256L245.097 132.987L232.448 125.72H232.451ZM239.03 171.079L246.369 166.862V135.172L241.056 138.225L233.715 142.443V174.133L239.03 171.079ZM278.004 134.297L265.354 141.565L278.004 148.833L290.652 141.563L278.004 134.297ZM276.738 151.02L269.398 146.802L264.084 143.749V158.137L271.423 162.354L276.738 165.408V151.02ZM247.632 183.443L266.186 172.872L275.46 167.589L262.82 160.326L248.267 168.688L235.003 176.309L247.632 183.443Z" fill="#FF2D20"/>
    </g>
    <defs>
        <linearGradient id="paint0_linear" x1="307.63" y1="361.869" x2="340.798" y2="318.057" gradientUnits="userSpaceOnUse">
            <stop offset="0.016129" stop-color="#765AF8"/>
            <stop offset="0.3821" stop-color="#B345F1"/>
            <stop offset="0.7581" stop-color="#FA3293"/>
            <stop offset="0.9409" stop-color="#FF318C"/>
        </linearGradient>
        <linearGradient id="paint1_linear" x1="310.081" y1="363.599" x2="343.195" y2="319.858" gradientUnits="userSpaceOnUse">
            <stop offset="0.016129" stop-color="#765AF8"/>
            <stop offset="0.3821" stop-color="#B345F1"/>
            <stop offset="0.7581" stop-color="#FA3293"/>
            <stop offset="0.9409" stop-color="#FF318C"/>
        </linearGradient>
        <linearGradient id="paint2_linear" x1="364.396" y1="361.371" x2="345.681" y2="316.954" gradientUnits="userSpaceOnUse">
            <stop offset="0.1828" stop-color="#765AF8"/>
            <stop offset="0.2382" stop-color="#8655F6"/>
            <stop offset="0.3449" stop-color="#9F4CF3"/>
            <stop offset="0.4425" stop-color="#AE47F2"/>
            <stop offset="0.5219" stop-color="#B345F1"/>
        </linearGradient>
        <linearGradient id="paint3_linear" x1="378.4" y1="373.711" x2="334.873" y2="340.054" gradientUnits="userSpaceOnUse">
            <stop offset="0.016129" stop-color="#765AF8"/>
            <stop offset="0.3821" stop-color="#B345F1"/>
        </linearGradient>
        <clipPath id="clip0">
            <rect width="512" height="512" fill="white"/>
        </clipPath>
        <clipPath id="clip1">
            <rect width="79" height="79" fill="white" transform="translate(307 309)"/>
        </clipPath>
    </defs>
</svg>
